cs_client/src/assets/icons/cherrytree/done.svg

<?xml version="1.0" encoding="UTF-8" standalone="no"?>
<!-- Created with Inkscape (http://www.inkscape.org/) -->
<svg
   xmlns:dc="http://purl.org/dc/elements/1.1/"
   xmlns:cc="http://creativecommons.org/ns#"
   xmlns:rdf="http://www.w3.org/1999/02/22-rdf-syntax-ns#"
   xmlns:svg="http://www.w3.org/2000/svg"
   xmlns="http://www.w3.org/2000/svg"
   xmlns:xlink="http://www.w3.org/1999/xlink"
   xmlns:sodipodi="http://sodipodi.sourceforge.net/DTD/sodipodi-0.dtd"
   xmlns:inkscape="http://www.inkscape.org/namespaces/inkscape"
   width="48px"
   height="48px"
   id="svg7976"
   sodipodi:version="0.32"
   inkscape:version="0.46"
   sodipodi:docname="drawing.svg"
   inkscape:output_extension="org.inkscape.output.svg.inkscape">
  <defs
     id="defs7978">
    <linearGradient
       inkscape:collect="always"
       id="linearGradient7948">
      <stop
         style="stop-color:#ffffff;stop-opacity:0"
         offset="0"
         id="stop7950" />
      <stop
         style="stop-color:#ffffff;stop-opacity:1"
         offset="1"
         id="stop7952" />
    </linearGradient>
    <linearGradient
       inkscape:collect="always"
       xlink:href="#linearGradient7948"
       id="linearGradient7954"
       x1="-81.959923"
       y1="35.301952"
       x2="-91.354408"
       y2="-8.3031855"
       gradientUnits="userSpaceOnUse" />
    <linearGradient
       id="linearGradient1731">
      <stop
         id="stop1733"
         offset="0"
         style="stop-color:#b8d67a;stop-opacity:1" />
      <stop
         id="stop1735"
         offset="1"
         style="stop-color:#789e2d;stop-opacity:1;" />
    </linearGradient>
    <linearGradient
       inkscape:collect="always"
       xlink:href="#linearGradient1731"
       id="linearGradient1455"
       gradientUnits="userSpaceOnUse"
       x1="-85.334991"
       y1="-6.8188653"
       x2="-91.536674"
       y2="27.080305"
       gradientTransform="translate(0.5271438,-2.3199355e-2)" />
    <linearGradient
       id="linearGradient8662"
       inkscape:collect="always">
      <stop
         id="stop8664"
         offset="0"
         style="stop-color:#000000;stop-opacity:1;" />
      <stop
         id="stop8666"
         offset="1"
         style="stop-color:#000000;stop-opacity:0;" />
    </linearGradient>
    <radialGradient
       inkscape:collect="always"
       xlink:href="#linearGradient8662"
       id="radialGradient1444"
       gradientUnits="userSpaceOnUse"
       gradientTransform="matrix(1,0,0,0.536723,0,16.87306)"
       cx="24.837126"
       cy="36.421127"
       fx="24.837126"
       fy="36.421127"
       r="15.644737" />
  </defs>
  <sodipodi:namedview
     id="base"
     pagecolor="#ffffff"
     bordercolor="#666666"
     borderopacity="1.0"
     inkscape:pageopacity="0.0"
     inkscape:pageshadow="2"
     inkscape:zoom="14"
     inkscape:cx="17.79899"
     inkscape:cy="21.497325"
     inkscape:current-layer="layer1"
     showgrid="true"
     inkscape:grid-bbox="true"
     inkscape:document-units="px"
     inkscape:window-width="1680"
     inkscape:window-height="1000"
     inkscape:window-x="0"
     inkscape:window-y="25" />
  <metadata
     id="metadata7981">
    <rdf:RDF>
      <cc:Work
         rdf:about="">
        <dc:format>image/svg+xml</dc:format>
        <dc:type
           rdf:resource="http://purl.org/dc/dcmitype/StillImage" />
      </cc:Work>
    </rdf:RDF>
  </metadata>
  <g
     id="layer1"
     inkscape:label="Layer 1"
     inkscape:groupmode="layer">
    <path
       transform="matrix(1.214466,0,0,0.595458,-6.1638433,20.312751)"
       d="M 40.481863,36.421127 A 15.644737,8.3968935 0 1 1 9.1923885,36.421127 A 15.644737,8.3968935 0 1 1 40.481863,36.421127 z"
       sodipodi:ry="8.3968935"
       sodipodi:rx="15.644737"
       sodipodi:cy="36.421127"
       sodipodi:cx="24.837126"
       id="path8660"
       style="opacity:0.20454544;fill:url(#radialGradient1444);fill-opacity:1;fill-rule:evenodd;stroke:none;stroke-width:1;stroke-linecap:butt;stroke-linejoin:miter;marker:none;marker-start:none;marker-mid:none;marker-end:none;stroke-miterlimit:10;stroke-dasharray:none;stroke-dashoffset:0;stroke-opacity:1;visibility:visible;display:inline;overflow:visible"
       sodipodi:type="arc" />
    <g
       id="g1529"
       inkscape:label="Layer 1"
       transform="translate(111.7398,15.579231)">
      <g
         id="g1450"
         transform="matrix(1.017301,-0.243559,0.243559,1.017301,-1.745715,-23.38258)">
        <path
           style="fill:url(#linearGradient1455);fill-opacity:1;fill-rule:nonzero;stroke:#42770c;stroke-width:0.95597649;stroke-linecap:round;stroke-linejoin:round;marker:none;marker-start:none;marker-mid:none;marker-end:none;stroke-miterlimit:4;stroke-dasharray:none;stroke-dashoffset:0;stroke-opacity:1;visibility:visible;display:inline;overflow:visible"
           d="M -73.881889,-4.6293179 C -74.389631,-4.8067199 -74.968019,-4.6757149 -75.352541,-4.2504169 L -91.734788,13.86571 L -97.664774,6.2884221 C -98.231838,5.7757261 -99.100737,5.8101851 -99.613436,6.3772491 L -103.90755,9.8077721 C -104.42024,10.374832 -104.37524,11.245996 -103.80818,11.75869 C -103.80818,11.75869 -93.079342,26.005593 -93.064798,26.017716 C -92.931895,26.137881 -92.782055,26.218205 -92.624431,26.277658 C -92.109522,26.471875 -91.506409,26.352506 -91.113876,25.918351 L -69.020292,1.4865271 C -68.507598,0.91946515 -68.552594,0.048303155 -69.11966,-0.46439283 L -73.40162,-4.3497839 C -73.543388,-4.4779589 -73.712642,-4.5701849 -73.881889,-4.6293179 z"
           id="path1542"
           sodipodi:nodetypes="cccccccssccccc" />
        <path
           style="opacity:0.4;fill:none;fill-opacity:1;fill-rule:nonzero;stroke:url(#linearGradient7954);stroke-width:0.95597649;stroke-linecap:round;stroke-linejoin:round;marker:none;marker-start:none;marker-mid:none;marker-end:none;stroke-miterlimit:4;stroke-dasharray:none;stroke-dashoffset:0;stroke-opacity:1;visibility:visible;display:inline;overflow:visible"
           d="M -74.978545,-3.2016699 L -83.289347,6.0212271 L -90.672863,14.143297 C -90.879108,14.271935 -90.955853,14.816814 -91.724224,14.828343 C -92.255838,14.83632 -92.301842,14.628226 -92.748497,14.162478 L -97.987967,7.5093115 C -98.568531,6.7592215 -98.553829,6.7944924 -99.185739,7.1858061 L -102.56429,9.8385081 C -103.44236,10.41927 -103.44231,10.897191 -102.70467,11.663785 C -102.70467,11.663785 -92.945374,24.597046 -92.931619,24.608516 C -92.805911,24.722171 -92.8741,24.734491 -92.355719,25.314704 C -92.023194,25.686891 -91.460716,24.892021 -91.091836,24.484045 L -69.849981,1.0476071 C -69.36818,0.51473817 -69.395599,0.51691517 -69.931971,0.031992155 L -73.780932,-3.3612149 C -74.334112,-3.8587709 -74.338372,-3.8556239 -74.978545,-3.2016699 z"
           id="path1544"
           sodipodi:nodetypes="cccscccccssccccc" />
      </g>
    </g>
  </g>
</svg>

<svg xmlns="http://www.w3.org/2000/svg" xmlns:xlink="http://www.w3.org/1999/xlink" width="48" height="48"><defs><linearGradient id="a"><stop offset="0" stop-color="#fff" stop-opacity="0"/><stop offset="1" stop-color="#fff"/></linearGradient><linearGradient xlink:href="#a" id="f" x1="-81.96" y1="35.302" x2="-91.354" y2="-8.303" gradientUnits="userSpaceOnUse"/><linearGradient id="b"><stop offset="0" stop-color="#b8d67a"/><stop offset="1" stop-color="#789e2d"/></linearGradient><linearGradient xlink:href="#b" id="e" gradientUnits="userSpaceOnUse" x1="-85.335" y1="-6.819" x2="-91.537" y2="27.08" gradientTransform="translate(.527 -.023)"/><linearGradient id="c"><stop offset="0"/><stop offset="1" stop-opacity="0"/></linearGradient><radialGradient xlink:href="#c" id="d" gradientUnits="userSpaceOnUse" gradientTransform="matrix(1 0 0 .53672 0 16.873)" cx="24.837" cy="36.421" fx="24.837" fy="36.421" r="15.645"/></defs><path transform="matrix(1.21447 0 0 .59546 -6.164 20.313)" d="M40.482 36.421a15.645 8.397 0 11-31.29 0 15.645 8.397 0 1131.29 0z" style="marker:none" opacity=".205" fill="url(#d)" fill-rule="evenodd" overflow="visible"/><g stroke-width=".956" stroke-linecap="round" stroke-linejoin="round"><path style="marker:none" d="M-73.882-4.63a1.366 1.366 0 00-1.47.38l-16.383 18.116-5.93-7.578a1.376 1.376 0 00-1.948.09l-4.295 3.43a1.38 1.38 0 00.1 1.95s10.729 14.248 10.743 14.26c.133.12.283.2.44.26a1.376 1.376 0 001.511-.36L-69.02 1.487a1.38 1.38 0 00-.1-1.951l-4.282-3.886a1.414 1.414 0 00-.48-.28z" fill="url(#e)" stroke="#42770c" overflow="visible" transform="rotate(-13.464 21.942 -469.818) scale(1.04605)"/><path style="marker:none" d="M-74.979-3.202l-8.31 9.223-7.384 8.122c-.206.129-.283.674-1.051.685-.532.008-.578-.2-1.024-.666l-5.24-6.653c-.58-.75-.566-.715-1.198-.323l-3.378 2.653c-.878.58-.878 1.058-.14 1.825 0 0 9.759 12.933 9.772 12.945.126.113.058.125.576.706.333.372.895-.423 1.264-.831L-69.85 1.048c.482-.533.454-.531-.082-1.016l-3.849-3.393c-.553-.498-.557-.495-1.198.16z" opacity=".4" fill="none" stroke="url(#f)" overflow="visible" transform="rotate(-13.464 21.942 -469.818) scale(1.04605)"/></g></svg>
